apps/trade/public/tokens/pyth.svg

<svg width="24" height="24" viewBox="0 0 24 24" fill="none" xmlns="http://www.w3.org/2000/svg">
<rect width="24" height="24" rx="12" fill="#E6DAFE"/>
<g clip-path="url(#clip0_11479_16229)">
<path d="M13.7499 10.7655C13.7499 11.7345 12.9664 12.5203 11.9999 12.5203V14.275C13.9328 14.275 15.4999 12.7036 15.4999 10.7655C15.4999 8.82737 13.9328 7.25592 11.9999 7.25592C11.3628 7.25592 10.7644 7.42656 10.2499 7.72577C9.20358 8.33212 8.49994 9.46627 8.49994 10.7655V19.5394L10.0734 21.1171L10.2499 21.2942V10.7655C10.2499 9.79642 11.0335 9.01071 11.9999 9.01071C12.9664 9.01071 13.7499 9.79642 13.7499 10.7655Z" fill="#110F23"/>
<path d="M12 3.74658C10.7249 3.74658 9.52974 4.08865 8.5 4.68627C7.84068 5.06802 7.25023 5.55453 6.75 6.12359C5.6609 7.3609 5 8.98632 5 10.7657V16.03L6.75 17.7848V10.7657C6.75 9.20696 7.42594 7.80615 8.5 6.84186C9.00498 6.38946 9.59781 6.03232 10.25 5.80217C10.7969 5.60692 11.3866 5.50137 12 5.50137C14.8993 5.50137 17.25 7.85853 17.25 10.7657C17.25 13.6729 14.8993 16.03 12 16.03V17.7848C15.8665 17.7848 19 14.6419 19 10.7657C19 6.88947 15.8665 3.74658 12 3.74658Z" fill="#110F23"/>
</g>
<defs>
<clipPath id="clip0_11479_16229">
<rect width="14" height="17.5476" fill="white" transform="translate(5 3.74658)"/>
</clipPath>
</defs>
</svg>

<svg width="24" height="24" fill="none" xmlns="http://www.w3.org/2000/svg">
    <rect width="24" height="24" rx="12" fill="#E6DAFE"/>
    <g clip-path="url(#a)" fill="#110F23">
        <path d="M13.75 10.765c0 .97-.784 1.755-1.75 1.755v1.755c1.933 0 3.5-1.571 3.5-3.51a3.505 3.505 0 0 0-3.5-3.51 3.508 3.508 0 0 0-3.5 3.51v8.774l1.573 1.578.177.177V10.765c0-.969.784-1.754 1.75-1.754s1.75.785 1.75 1.755Z"/>
        <path d="M12 3.747a6.95 6.95 0 0 0-3.5.94c-.66.381-1.25.868-1.75 1.437A7.003 7.003 0 0 0 5 10.766v5.264l1.75 1.755v-7.02A5.259 5.259 0 0 1 12 5.502c2.9 0 5.25 2.358 5.25 5.265 0 2.907-2.35 5.264-5.25 5.264v1.755c3.867 0 7-3.143 7-7.02 0-3.876-3.133-7.018-7-7.018Z"/>
    </g>
    <defs>
        <clipPath id="a">
            <path fill="#fff" d="M5 3.747h14v17.548H5z"/>
        </clipPath>
    </defs>
</svg>
